assets/sprite/svg/objects/World_Space_UserResearch.svg

<svg height="312" viewBox="0 0 1250 312" width="1250" xmlns="http://www.w3.org/2000/svg"><g fill="#7a0026"><path d="m384.73 125.6v-15.12h-15.13v-90.78h30.26v90.78h45.39v-90.78h30.26v90.78h-15.13v15.12z"/><path d="m505.77 125.6v-15.12h-15.13v-15.13h30.26v15.13h45.38v-30.26h-60.51v-15.13h-15.13v-30.26h15.13v-15.13h75.64v15.13h15.13v15.17h-30.26v-15.17h-45.38v30.26h60.51v15.13h15.13v30.26h-15.13v15.12z"/><path d="m611.67 125.6v-105.9h105.91v15.13h-75.65v30.26h60.52v15.13h-60.52v30.26h75.65v15.12z"/><path d="m732.71 125.6v-105.9h90.77v15.13h15.13v45.39h-30.26v15.13h15.13v15.13h15.13v15.12h-45.39v-15.12h-15.13v-15.13h-15.09v30.25zm30.29-45.38h30.26v-15.13h15.13v-30.26h-45.39z"/><path d="m6.5 270.85v-105.91h90.78v15.13h15.13v45.39h-30.26v15.13h15.13v15.13h15.13v15.13h-45.41v-15.13h-15.11v-15.13h-15.13v30.26zm30.26-45.39h30.24v-15.13h15.15v-30.26h-45.39z"/><path d="m127.54 270.85v-105.91h105.9v15.13h-75.64v30.26h60.51v15.13h-60.51v30.26h75.64v15.13z"/><path d="m263.7 270.85v-15.13h-15.13v-15.13h30.26v15.13h45.39v-30.26h-60.52v-15.13h-15.13v-30.26h15.13v-15.13h75.65v15.13h15.13v15.13h-30.26v-15.13h-45.39v30.26h60.52v15.13h15.13v30.26h-15.13v15.13z"/><path d="m369.61 270.85v-105.91h105.9v15.13h-75.65v30.26h60.52v15.13h-60.52v30.26h75.65v15.13z"/><path d="m490.64 270.85v-75.65h15.13v-15.13h15.13v-15.13h45.38v15.13h15.13v15.13h15.13v75.65h-30.26v-30.26h-45.38v30.26zm30.26-45.39h45.38v-30.26h-15.12v-15.13h-15.16v15.13h-15.1z"/><path d="m611.67 270.85v-105.91h90.78v15.13h15.13v45.39h-30.26v15.13h15.13v15.13h15.13v15.13h-45.39v-15.13h-15.13v-15.13h-15.13v30.26zm30.26-45.39h30.26v-15.13h15.13v-30.26h-45.39z"/><path d="m763 270.85v-15.13h-15.17v-15.13h-15.12v-45.39h15.12v-15.13h15.17v-15.13h60.52v15.13h15.13v15.13h-30.3v-15.13h-30.26v15.13h-15.09v45.39h15.13v15.13h30.26v-15.13h30.26v15.13h-15.17v15.13z"/><path d="m853.74 270.85v-105.91h30.26v45.39h45.38v-45.39h30.26v105.91h-30.26v-45.39h-45.38v45.39z"/><path d="m974.77 270.85v-105.91h105.91v15.13h-75.68v30.26h60.52v15.13h-60.52v30.26h75.65v15.13z"/><path d="m1095.81 270.85v-105.91h90.77v15.13h15.13v45.39h-30.26v15.13h15.13v15.13h15.13v15.13h-45.39v-15.13h-15.13v-15.13h-15.13v30.26zm30.25-45.39h30.26v-15.13h15.13v-30.26h-45.39z"/></g><path d="m399.73 131.6v-15.12h-15.13v-90.78h30.26v90.78h45.39v-90.78h30.26v90.78h-15.13v15.12z" fill="#9e0039"/><path d="m520.77 131.6v-15.12h-15.13v-15.13h30.26v15.13h45.38v-30.26h-60.51v-15.13h-15.13v-30.26h15.13v-15.13h75.64v15.13h15.13v15.17h-30.26v-15.17h-45.38v30.26h60.51v15.13h15.13v30.26h-15.13v15.12z" fill="#9e0039"/><path d="m626.67 131.6v-105.9h105.91v15.13h-75.65v30.26h60.52v15.13h-60.52v30.26h75.65v15.12z" fill="#9e0039"/><path d="m747.71 131.6v-105.9h90.77v15.13h15.13v45.39h-30.26v15.13h15.13v15.13h15.13v15.12h-45.39v-15.12h-15.13v-15.13h-15.09v30.25zm30.29-45.38h30.26v-15.13h15.13v-30.26h-45.39z" fill="#9e0039"/><path d="m21.5 276.85v-105.91h90.78v15.13h15.13v45.39h-30.26v15.13h15.13v15.13h15.13v15.13h-45.41v-15.13h-15.11v-15.13h-15.13v30.26zm30.26-45.39h30.24v-15.13h15.15v-30.26h-45.39z" fill="#9e0039"/><path d="m142.54 276.85v-105.91h105.9v15.13h-75.64v30.26h60.51v15.13h-60.51v30.26h75.64v15.13z" fill="#9e0039"/><path d="m278.7 276.85v-15.13h-15.13v-15.13h30.26v15.13h45.39v-30.26h-60.52v-15.13h-15.13v-30.26h15.13v-15.13h75.65v15.13h15.13v15.13h-30.26v-15.13h-45.39v30.26h60.52v15.13h15.13v30.26h-15.13v15.13z" fill="#9e0039"/><path d="m384.61 276.85v-105.91h105.9v15.13h-75.65v30.26h60.52v15.13h-60.52v30.26h75.65v15.13z" fill="#9e0039"/><path d="m505.64 276.85v-75.65h15.13v-15.13h15.13v-15.13h45.38v15.13h15.13v15.13h15.13v75.65h-30.26v-30.26h-45.38v30.26zm30.26-45.39h45.38v-30.26h-15.12v-15.13h-15.16v15.13h-15.1z" fill="#9e0039"/><path d="m626.67 276.85v-105.91h90.78v15.13h15.13v45.39h-30.26v15.13h15.13v15.13h15.13v15.13h-45.39v-15.13h-15.13v-15.13h-15.13v30.26zm30.26-45.39h30.26v-15.13h15.13v-30.26h-45.39z" fill="#9e0039"/><path d="m778 276.85v-15.13h-15.17v-15.13h-15.12v-45.39h15.12v-15.13h15.17v-15.13h60.52v15.13h15.13v15.13h-30.3v-15.13h-30.26v15.13h-15.09v45.39h15.13v15.13h30.26v-15.13h30.26v15.13h-15.17v15.13z" fill="#9e0039"/><path d="m868.74 276.85v-105.91h30.26v45.39h45.38v-45.39h30.26v105.91h-30.26v-45.39h-45.38v45.39z" fill="#9e0039"/><path d="m989.77 276.85v-105.91h105.91v15.13h-75.68v30.26h60.52v15.13h-60.52v30.26h75.65v15.13z" fill="#9e0039"/><path d="m1110.81 276.85v-105.91h90.77v15.13h15.13v45.39h-30.26v15.13h15.13v15.13h15.13v15.13h-45.39v-15.13h-15.13v-15.13h-15.13v30.26zm30.25-45.39h30.26v-15.13h15.13v-30.26h-45.39z" fill="#9e0039"/><path d="m412.73 142.6v-15.12h-15.13v-90.78h30.26v90.78h45.39v-90.78h30.26v90.78h-15.13v15.12z" fill="#f26d7d"/><path d="m533.77 142.6v-15.12h-15.13v-15.13h30.26v15.13h45.38v-30.26h-60.51v-15.13h-15.13v-30.26h15.13v-15.13h75.64v15.13h15.13v15.17h-30.26v-15.17h-45.38v30.26h60.51v15.13h15.13v30.26h-15.13v15.12z" fill="#f26d7d"/><path d="m639.67 142.6v-105.9h105.91v15.13h-75.65v30.26h60.52v15.13h-60.52v30.26h75.65v15.12z" fill="#f26d7d"/><path d="m760.71 142.6v-105.9h90.77v15.13h15.13v45.39h-30.26v15.13h15.13v15.13h15.13v15.12h-45.39v-15.12h-15.13v-15.13h-15.09v30.25zm30.29-45.38h30.26v-15.13h15.13v-30.26h-45.39z" fill="#f26d7d"/><path d="m34.5 287.85v-105.91h90.78v15.13h15.13v45.39h-30.26v15.13h15.13v15.13h15.13v15.13h-45.41v-15.13h-15.11v-15.13h-15.13v30.26zm30.26-45.39h30.24v-15.13h15.13v-30.26h-45.37z" fill="#f26d7d"/><path d="m155.54 287.85v-105.91h105.9v15.13h-75.64v30.26h60.51v15.13h-60.51v30.26h75.64v15.13z" fill="#f26d7d"/><path d="m291.7 287.85v-15.13h-15.13v-15.13h30.26v15.13h45.39v-30.26h-60.52v-15.13h-15.13v-30.26h15.13v-15.13h75.65v15.13h15.13v15.13h-30.26v-15.13h-45.39v30.26h60.52v15.13h15.13v30.26h-15.13v15.13z" fill="#f26d7d"/><path d="m397.61 287.85v-105.91h105.9v15.13h-75.65v30.26h60.52v15.13h-60.52v30.26h75.65v15.13z" fill="#f26d7d"/><path d="m518.64 287.85v-75.65h15.13v-15.13h15.13v-15.13h45.38v15.13h15.13v15.13h15.13v75.65h-30.26v-30.26h-45.38v30.26zm30.26-45.39h45.38v-30.26h-15.12v-15.13h-15.16v15.13h-15.1z" fill="#f26d7d"/><path d="m639.67 287.85v-105.91h90.78v15.13h15.13v45.39h-30.26v15.13h15.13v15.13h15.13v15.13h-45.39v-15.13h-15.13v-15.13h-15.13v30.26zm30.26-45.39h30.26v-15.13h15.13v-30.26h-45.39z" fill="#f26d7d"/><path d="m791 287.85v-15.13h-15.17v-15.13h-15.12v-45.39h15.12v-15.13h15.17v-15.13h60.52v15.13h15.13v15.13h-30.3v-15.13h-30.26v15.13h-15.09v45.39h15.13v15.13h30.26v-15.13h30.26v15.13h-15.17v15.13z" fill="#f26d7d"/><path d="m881.74 287.85v-105.91h30.26v45.39h45.38v-45.39h30.26v105.91h-30.26v-45.39h-45.38v45.39z" fill="#f26d7d"/><path d="m1002.77 287.85v-105.91h105.91v15.13h-75.68v30.26h60.52v15.13h-60.52v30.26h75.65v15.13z" fill="#f26d7d"/><path d="m1123.81 287.85v-105.91h90.77v15.13h15.13v45.39h-30.26v15.13h15.13v15.13h15.13v15.13h-45.39v-15.13h-15.13v-15.13h-15.13v30.26zm30.25-45.39h30.26v-15.13h15.13v-30.26h-45.39z" fill="#f26d7d"/></svg>

<svg xmlns="http://www.w3.org/2000/svg" width="1250" height="312" viewBox="0 0 1250 312"><title>World_Space</title><g id="Layer_7" data-name="Layer 7"><path d="M384.73,125.6V110.48H369.6V19.7h30.26v90.78h45.39V19.7h30.26v90.78H460.38V125.6Z" style="fill:#7a0026"/><path d="M505.77,125.6V110.48H490.64V95.35H520.9v15.13h45.38V80.22H505.77V65.09H490.64V34.83h15.13V19.7h75.64V34.83h15.13V50H566.28V34.83H520.9V65.09h60.51V80.22h15.13v30.26H581.41V125.6Z" style="fill:#7a0026"/><path d="M611.67,125.6V19.7H717.58V34.83H641.93V65.09h60.52V80.22H641.93v30.26h75.65V125.6Z" style="fill:#7a0026"/><path d="M732.71,125.6V19.7h90.77V34.83h15.13V80.22H808.35V95.35h15.13v15.13h15.13V125.6H793.22V110.48H778.09V95.35H763V125.6ZM763,80.22h30.26V65.09h15.13V34.83H763Z" style="fill:#7a0026"/><path d="M6.5,270.85V164.94H97.28v15.13h15.13v45.39H82.15v15.13H97.28v15.13h15.13v15.13H67V255.72H51.89V240.59H36.76v30.26Zm30.26-45.39H67V210.33H82.15V180.07H36.76Z" style="fill:#7a0026"/><path d="M127.54,270.85V164.94h105.9v15.13H157.8v30.26h60.51v15.13H157.8v30.26h75.64v15.13Z" style="fill:#7a0026"/><path d="M263.7,270.85V255.72H248.57V240.59h30.26v15.13h45.39V225.46H263.7V210.33H248.57V180.07H263.7V164.94h75.65v15.13h15.13V195.2H324.22V180.07H278.83v30.26h60.52v15.13h15.13v30.26H339.35v15.13Z" style="fill:#7a0026"/><path d="M369.61,270.85V164.94h105.9v15.13H399.86v30.26h60.52v15.13H399.86v30.26h75.65v15.13Z" style="fill:#7a0026"/><path d="M490.64,270.85V195.2h15.13V180.07H520.9V164.94h45.38v15.13h15.13V195.2h15.13v75.65H566.28V240.59H520.9v30.26Zm30.26-45.39h45.38V195.2H551.16V180.07H536V195.2H520.9Z" style="fill:#7a0026"/><path d="M611.67,270.85V164.94h90.78v15.13h15.13v45.39H687.32v15.13h15.13v15.13h15.13v15.13H672.19V255.72H657.06V240.59H641.93v30.26Zm30.26-45.39h30.26V210.33h15.13V180.07H641.93Z" style="fill:#7a0026"/><path d="M763,270.85V255.72H747.83V240.59H732.71V195.2h15.12V180.07H763V164.94h60.52v15.13h15.13V195.2H808.35V180.07H778.09V195.2H763v45.39h15.13v15.13h30.26V240.59h30.26v15.13H823.48v15.13Z" style="fill:#7a0026"/><path d="M853.74,270.85V164.94H884v45.39h45.38V164.94h30.26V270.85H929.38V225.46H884v45.39Z" style="fill:#7a0026"/><path d="M974.77,270.85V164.94h105.91v15.13H1005v30.26h60.52v15.13H1005v30.26h75.65v15.13Z" style="fill:#7a0026"/><path d="M1095.81,270.85V164.94h90.77v15.13h15.13v45.39h-30.26v15.13h15.13v15.13h15.13v15.13h-45.39V255.72h-15.13V240.59h-15.13v30.26Zm30.25-45.39h30.26V210.33h15.13V180.07h-45.39Z" style="fill:#7a0026"/><path d="M399.73,131.6V116.48H384.6V25.7h30.26v90.78h45.39V25.7h30.26v90.78H475.38V131.6Z" style="fill:#9e0039"/><path d="M520.77,131.6V116.48H505.64V101.35H535.9v15.13h45.38V86.22H520.77V71.09H505.64V40.83h15.13V25.7h75.64V40.83h15.13V56H581.28V40.83H535.9V71.09h60.51V86.22h15.13v30.26H596.41V131.6Z" style="fill:#9e0039"/><path d="M626.67,131.6V25.7H732.58V40.83H656.93V71.09h60.52V86.22H656.93v30.26h75.65V131.6Z" style="fill:#9e0039"/><path d="M747.71,131.6V25.7h90.77V40.83h15.13V86.22H823.35v15.13h15.13v15.13h15.13V131.6H808.22V116.48H793.09V101.35H778V131.6ZM778,86.22h30.26V71.09h15.13V40.83H778Z" style="fill:#9e0039"/><path d="M21.5,276.85V170.94h90.78v15.13h15.13v45.39H97.15v15.13h15.13v15.13h15.13v15.13H82V261.72H66.89V246.59H51.76v30.26Zm30.26-45.39H82V216.33H97.15V186.07H51.76Z" style="fill:#9e0039"/><path d="M142.54,276.85V170.94h105.9v15.13H172.8v30.26h60.51v15.13H172.8v30.26h75.64v15.13Z" style="fill:#9e0039"/><path d="M278.7,276.85V261.72H263.57V246.59h30.26v15.13h45.39V231.46H278.7V216.33H263.57V186.07H278.7V170.94h75.65v15.13h15.13V201.2H339.22V186.07H293.83v30.26h60.52v15.13h15.13v30.26H354.35v15.13Z" style="fill:#9e0039"/><path d="M384.61,276.85V170.94h105.9v15.13H414.86v30.26h60.52v15.13H414.86v30.26h75.65v15.13Z" style="fill:#9e0039"/><path d="M505.64,276.85V201.2h15.13V186.07H535.9V170.94h45.38v15.13h15.13V201.2h15.13v75.65H581.28V246.59H535.9v30.26Zm30.26-45.39h45.38V201.2H566.16V186.07H551V201.2H535.9Z" style="fill:#9e0039"/><path d="M626.67,276.85V170.94h90.78v15.13h15.13v45.39H702.32v15.13h15.13v15.13h15.13v15.13H687.19V261.72H672.06V246.59H656.93v30.26Zm30.26-45.39h30.26V216.33h15.13V186.07H656.93Z" style="fill:#9e0039"/><path d="M778,276.85V261.72H762.83V246.59H747.71V201.2h15.12V186.07H778V170.94h60.52v15.13h15.13V201.2H823.35V186.07H793.09V201.2H778v45.39h15.13v15.13h30.26V246.59h30.26v15.13H838.48v15.13Z" style="fill:#9e0039"/><path d="M868.74,276.85V170.94H899v45.39h45.38V170.94h30.26V276.85H944.38V231.46H899v45.39Z" style="fill:#9e0039"/><path d="M989.77,276.85V170.94h105.91v15.13H1020v30.26h60.52v15.13H1020v30.26h75.65v15.13Z" style="fill:#9e0039"/><path d="M1110.81,276.85V170.94h90.77v15.13h15.13v45.39h-30.26v15.13h15.13v15.13h15.13v15.13h-45.39V261.72h-15.13V246.59h-15.13v30.26Zm30.25-45.39h30.26V216.33h15.13V186.07h-45.39Z" style="fill:#9e0039"/><path d="M412.73,142.6V127.48H397.6V36.7h30.26v90.78h45.39V36.7h30.26v90.78H488.38V142.6Z" style="fill:#f26d7d"/><path d="M533.77,142.6V127.48H518.64V112.35H548.9v15.13h45.38V97.22H533.77V82.09H518.64V51.83h15.13V36.7h75.64V51.83h15.13V67H594.28V51.83H548.9V82.09h60.51V97.22h15.13v30.26H609.41V142.6Z" style="fill:#f26d7d"/><path d="M639.67,142.6V36.7H745.58V51.83H669.93V82.09h60.52V97.22H669.93v30.26h75.65V142.6Z" style="fill:#f26d7d"/><path d="M760.71,142.6V36.7h90.77V51.83h15.13V97.22H836.35v15.13h15.13v15.13h15.13V142.6H821.22V127.48H806.09V112.35H791V142.6ZM791,97.22h30.26V82.09h15.13V51.83H791Z" style="fill:#f26d7d"/><path d="M34.5,287.85V181.94h90.78v15.13h15.13v45.39H110.15v15.13h15.13v15.13h15.13v15.13H95V272.72H79.89V257.59H64.76v30.26Zm30.26-45.39H95V227.33h15.13V197.07H64.76Z" style="fill:#f26d7d"/><path d="M155.54,287.85V181.94h105.9v15.13H185.8v30.26h60.51v15.13H185.8v30.26h75.64v15.13Z" style="fill:#f26d7d"/><path d="M291.7,287.85V272.72H276.57V257.59h30.26v15.13h45.39V242.46H291.7V227.33H276.57V197.07H291.7V181.94h75.65v15.13h15.13V212.2H352.22V197.07H306.83v30.26h60.52v15.13h15.13v30.26H367.35v15.13Z" style="fill:#f26d7d"/><path d="M397.61,287.85V181.94h105.9v15.13H427.86v30.26h60.52v15.13H427.86v30.26h75.65v15.13Z" style="fill:#f26d7d"/><path d="M518.64,287.85V212.2h15.13V197.07H548.9V181.94h45.38v15.13h15.13V212.2h15.13v75.65H594.28V257.59H548.9v30.26Zm30.26-45.39h45.38V212.2H579.16V197.07H564V212.2H548.9Z" style="fill:#f26d7d"/><path d="M639.67,287.85V181.94h90.78v15.13h15.13v45.39H715.32v15.13h15.13v15.13h15.13v15.13H700.19V272.72H685.06V257.59H669.93v30.26Zm30.26-45.39h30.26V227.33h15.13V197.07H669.93Z" style="fill:#f26d7d"/><path d="M791,287.85V272.72H775.83V257.59H760.71V212.2h15.12V197.07H791V181.94h60.52v15.13h15.13V212.2H836.35V197.07H806.09V212.2H791v45.39h15.13v15.13h30.26V257.59h30.26v15.13H851.48v15.13Z" style="fill:#f26d7d"/><path d="M881.74,287.85V181.94H912v45.39h45.38V181.94h30.26V287.85H957.38V242.46H912v45.39Z" style="fill:#f26d7d"/><path d="M1002.77,287.85V181.94h105.91v15.13H1033v30.26h60.52v15.13H1033v30.26h75.65v15.13Z" style="fill:#f26d7d"/><path d="M1123.81,287.85V181.94h90.77v15.13h15.13v45.39h-30.26v15.13h15.13v15.13h15.13v15.13h-45.39V272.72h-15.13V257.59h-15.13v30.26Zm30.25-45.39h30.26V227.33h15.13V197.07h-45.39Z" style="fill:#f26d7d"/></g></svg>
